addons/godot-flexbox/assets/light/AlignItemsStartRowIcon.svg

<svg data-wf-icon="AlignItemsStartRowIcon" width="16" height="16" viewBox="0 0 24 24" fill="#474747" xmlns="http://www.w3.org/2000/svg"><path d="M0 0H24V1.5H0V0Z" fill="#474747"></path><path d="M10.5 3H4.5V15H10.5V3Z" fill="#474747"></path><path d="M18 3H12V12H18V3Z" fill="#474747"></path></svg>

<svg xmlns="http://www.w3.org/2000/svg" width="16" height="16" fill="#474747" data-wf-icon="AlignItemsStartRowIcon" viewBox="0 0 24 24"><path d="M0 0h24v1.5H0V0ZM10.5 3h-6v12h6V3ZM18 3h-6v9h6V3Z"/></svg>
